X: 122004
P: Same figure.
M: 2/4
L: 1/16
K: A
|:\
vA3uc ecAc | e2a2g2f2 |\
e3c ecAc | B2d2c2B2 |\
e3c a2c2 | B4 A4 :|
|:\
E3G BGEG | B2d2c2B2 |\
ve3vcua3uf | e2ec ua3uf |\
ve3vc(.a2.c2) | B4 A4 :|


